logos/elasticsearch.svg

<svg width="253" height="205" viewBox="0 0 253 205" fill="none" xmlns="http://www.w3.org/2000/svg">
<g clip-path="url(#clip0_16_45)">
<path d="M228.79 106.76C228.813 98.4528 226.266 90.3418 221.498 83.5388C216.731 76.7358 209.976 71.5737 202.16 68.76C202.871 65.1364 203.229 61.4526 203.23 57.76C203.224 45.5444 199.347 33.6451 192.154 23.7715C184.962 13.8979 174.825 6.55836 163.199 2.80732C151.574 -0.943725 139.059 -0.913163 127.452 2.89461C115.845 6.70238 105.744 14.0914 98.5998 24C93.3274 19.9276 86.8731 17.6814 80.2116 17.6006C73.5501 17.5198 67.0432 19.6089 61.6736 23.5522C56.304 27.4955 52.3634 33.079 50.4469 39.4594C48.5303 45.8397 48.7419 52.6705 51.0498 58.92C43.2243 61.7693 36.4581 66.9452 31.6602 73.7524C26.8623 80.5596 24.2624 88.672 24.2098 97C24.1769 105.346 26.7367 113.497 31.5357 120.325C36.3347 127.154 43.136 132.323 50.9998 135.12C49.3772 143.469 49.6218 152.073 51.7159 160.317C53.81 168.56 57.7019 176.238 63.1125 182.8C68.523 189.363 75.3184 194.647 83.0114 198.274C90.7044 201.901 99.1046 203.781 107.61 203.78C116.765 203.788 125.79 201.607 133.931 197.418C142.072 193.229 149.094 187.154 154.41 179.7C159.665 183.818 166.122 186.107 172.797 186.217C179.473 186.328 186.002 184.254 191.391 180.311C196.779 176.369 200.731 170.774 202.647 164.378C204.562 157.982 204.335 151.135 202 144.88C209.832 142.029 216.604 136.848 221.403 130.032C226.201 123.217 228.797 115.095 228.84 106.76" fill="white"/>
<path d="M104.64 87.76L149.41 108.17L194.57 68.6C196.857 57.1909 195.132 45.3422 189.689 35.058C184.246 24.7738 175.417 16.6854 164.697 12.1609C153.977 7.6364 142.023 6.95354 130.857 10.2278C119.691 13.5021 109.999 20.5325 103.42 30.13L95.8999 69.13L104.64 87.76Z" fill="#FEC514"/>
<path d="M58.31 135.17C55.9782 146.633 57.6882 158.549 63.1492 168.893C68.6102 179.238 77.4852 187.371 88.2653 191.912C99.0455 196.452 111.065 197.119 122.282 193.799C133.498 190.479 143.218 183.377 149.79 173.7L157.24 134.86L147.24 115.86L102.35 95.36L58.31 135.17Z" fill="#00BFB3"/>
<path d="M58.0002 57.7L88.7002 64.94L95.4202 30.06C91.2462 26.9002 86.1616 25.176 80.9265 25.1452C75.6914 25.1144 70.5869 26.7785 66.3759 29.889C62.1649 32.9994 59.0735 37.389 57.5638 42.4018C56.0542 47.4146 56.2073 52.7814 58.0002 57.7Z" fill="#F04E98"/>
<path d="M55.36 65C48.728 67.1911 42.9365 71.3806 38.78 76.9938C34.6235 82.607 32.3058 89.3688 32.1447 96.3515C31.9837 103.334 33.9873 110.196 37.8805 115.995C41.7738 121.793 47.3661 126.246 53.89 128.74L96.89 89.83L89 73L55.36 65Z" fill="#1BA9F5"/>
<path d="M157.65 173.7C161.221 176.451 165.493 178.144 169.979 178.588C174.466 179.032 178.986 178.208 183.028 176.209C187.069 174.211 190.468 171.119 192.839 167.285C195.21 163.451 196.458 159.028 196.44 154.52C196.452 151.652 195.958 148.805 194.98 146.11L164.33 138.94L157.65 173.7Z" fill="#93C90E"/>
<path d="M163.89 130.91L197.64 138.8C204.376 136.529 210.235 132.213 214.401 126.454C218.567 120.694 220.832 113.778 220.88 106.67C220.874 99.8171 218.783 93.1282 214.886 87.4914C210.989 81.8545 205.469 77.5363 199.06 75.11L154.93 113.78L163.89 130.91Z" fill="#0077CC"/>
</g>
<defs>
<clipPath id="clip0_16_45">
<rect width="253" height="300" fill="white"/>
</clipPath>
</defs>
</svg>

<svg xmlns="http://www.w3.org/2000/svg" width="253" height="205" fill="none"><g clip-path="url(#a)"><path fill="#fff" d="M228.79 106.76a40.265 40.265 0 0 0-26.63-38 57.21 57.21 0 0 0 1.07-11A57.77 57.77 0 0 0 98.6 24a30.69 30.69 0 0 0-47.55 34.92A40.8 40.8 0 0 0 24.21 97 40.289 40.289 0 0 0 51 135.12a57.66 57.66 0 0 0 56.61 68.66 57.418 57.418 0 0 0 46.8-24.08A30.63 30.63 0 0 0 202 144.88a40.796 40.796 0 0 0 26.84-38.12"/><path fill="#FEC514" d="m104.64 87.76 44.77 20.41 45.16-39.57a50.49 50.49 0 0 0-91.15-38.47l-7.52 39 8.74 18.63Z"/><path fill="#00BFB3" d="M58.31 135.17a50.619 50.619 0 0 0 91.48 38.53l7.45-38.84-10-19-44.89-20.5-44.04 39.81Z"/><path fill="#F04E98" d="m58 57.7 30.7 7.24 6.72-34.88A24.25 24.25 0 0 0 58 57.7Z"/><path fill="#1BA9F5" d="M55.36 65a33.84 33.84 0 0 0-1.47 63.74l43-38.91L89 73l-33.64-8Z"/><path fill="#93C90E" d="M157.65 173.7a24.09 24.09 0 0 0 38.79-19.18 24.354 24.354 0 0 0-1.46-8.41l-30.65-7.17-6.68 34.76Z"/><path fill="#07C" d="m163.89 130.91 33.75 7.89a34.153 34.153 0 0 0 23.24-32.13 33.778 33.778 0 0 0-21.82-31.56l-44.13 38.67 8.96 17.13Z"/></g><defs><clipPath id="a"><path fill="#fff" d="M0 0h253v300H0z"/></clipPath></defs></svg>
